X:5
T:Trunkles
N:second time through, play a rest as second note in bars 1, 2 & 3 of C music
%%writefields N
Q:1/4=120
M:2/2
L:1/8
R:Schottische
A:Bledington
C:A.(A2B3C3)2.(A2B3D3)2.A2
P:(A2B3C3).(A2B3D3)
G:sax
%abc2id:chwalshaw@gmail.com:000000028
%abc2 #list folder 2/list subfolder 2.1/test list 2.1.3:001
K:Gmaj
P:A
d2d2 c2e2|d>cB>A B2G2|d2d2 c2e2|d>cB>A G4"^x2"||
P:B
B2B>c d2d2|e>fg>e d2g2|f2>ed ^c2A2|d4 d4"^x3"||
P:C
e2c2 c>de>c|d2B2 B>cd>B|\
c2A2 A>Bc>e|d>cB>A G2c2|B2A>G F2A2|G4 G4"^x3"||
P:D
M:2/2
e4c4|c3d e2c2|d4B4|B3c d2B2|\
c4A4|A3B c2e2|
d3c B2A2|\
M:2/4
L:1/8
G2c2|\
M:2/2
B2A>G F2A2|G4 G4"^x3"||

